X:1
T:Title
L:1/8
M:4/4
I:linebreak $
K:Bb
V:1 treble nm="Voice"
V:1
"Bb" B2 (3dcB fdbd | B/B/B (3dcB"F" AFcA |"Bb" B2 (3dcB fdbd |1"F" c>A FA"Bb" BGGA :|2 %4
"F" c>A FA"Bb" BG G2 |:"Bb" DGBG dGBG | DGBG"F" AFcA |1"Bb" DGBG dGBG |"F" cAFA"Bb" BG G2 :|2 %9
"Bb" DGBG dBgd |"F" c'afa"Bb" bggA |] %11
